X:1
T:Mike's March
M:C|
L:1/4
Q:1/4=220
C:Bob McQuillen
S:transcribed by Dick Atlee from Hand it Down (Avocet CD 105)
R:march
K:Em
B, | "Em" E>^D E F | G G2 B | "Am" A>G "Em" E B, | "Bm" D3 B, |
"Em" E>^D E F | G A B e | "Bm" d B B>A | B3 d | !
"Em" e>d B A | B G G B | "Am" A>G "Em" E B, | "Bm" D3 B, |
"Em" E>F G e | "Bm" d B "Am" A B/2A/2 | "Em" G E "Bm" E>D | "Em" E3 "Bm" f | !
"Em" g>f e d | e d B A | G>F "Am" G A | "Bm" B2 e f |
"Em" g>f e d | e d "Bm" B>d | "Em" e d B G | "Am" A B/2A/2 G A | !
"Em" B>A G E | E D G B | "Am" A>G "Em" E B, | "Bm" D3 B, |
"Em" E>^D E F | G B2 "Am" A | "Em" G E "Bm" E>D | "Em" E3 ||
